public/images/icon/boxes.svg

<svg fill="none" height="25" viewBox="0 0 24 25" width="24" xmlns="http://www.w3.org/2000/svg"><g stroke="#000" stroke-linecap="round" stroke-linejoin="round" stroke-width="2"><path d="m2.97 13.42c-.29524.1774-.53967.428-.70961.7276s-.25964.638-.26039.9824v3.24c.00075.3444.09045.6828.26039.9824s.41437.5502.70961.7276l3 1.8c.31106.1869.66711.2856 1.03.2856s.71894-.0987 1.03-.2856l3.97-2.38v-5.5l-5-3z"/><path d="m6.99977 17.0004-4.74-2.85"/><path d="m7 17 5-3"/><path d="m7 17v5.17"/><path d="m12 14v5.5l3.97 2.38c.3111.1869.6671.2856 1.03.2856s.7189-.0987 1.03-.2856l3-1.8c.2952-.1774.5397-.428.7096-.7276.17-.2996.2596-.638.2604-.9824v-3.24c-.0008-.3444-.0904-.6828-.2604-.9824-.1699-.2996-.4144-.5502-.7096-.7276l-4.03-2.42z"/><path d="m17 17-5-3"/><path d="m17 17.0004 4.74-2.85"/><path d="m17 17v5.17"/><path d="m7.97 4.9196c-.29524.17738-.53967.42801-.70961.72759-.16994.29959-.25964.63799-.26039.98241v4.37l5 3 5-3v-4.37c-.0008-.34442-.0904-.68282-.2604-.98241-.1699-.29958-.4144-.55021-.7096-.72759l-3-1.8c-.3111-.18688-.6671-.28562-1.03-.28562s-.7189.09874-1.03.28562z"/><path d="m11.9998 8.50039-4.74003-2.85"/><path d="m12 8.50039 4.74-2.85"/><path d="m12 14v-5.5"/></g></svg>

<svg width="24" height="25" viewBox="0 0 24 25" fill="none" xmlns="http://www.w3.org/2000/svg">
<path d="M2.97 13.42C2.67476 13.5974 2.43033 13.848 2.26039 14.1476C2.09045 14.4472 2.00075 14.7856 2 15.13V18.37C2.00075 18.7144 2.09045 19.0528 2.26039 19.3524C2.43033 19.652 2.67476 19.9026 2.97 20.08L5.97 21.88C6.28106 22.0669 6.63711 22.1656 7 22.1656C7.36289 22.1656 7.71894 22.0669 8.03 21.88L12 19.5V14L7 11L2.97 13.42Z" stroke="black" stroke-width="2" stroke-linecap="round" stroke-linejoin="round"/>
<path d="M6.99977 17.0004L2.25977 14.1504" stroke="black" stroke-width="2" stroke-linecap="round" stroke-linejoin="round"/>
<path d="M7 17L12 14" stroke="black" stroke-width="2" stroke-linecap="round" stroke-linejoin="round"/>
<path d="M7 17V22.17" stroke="black" stroke-width="2" stroke-linecap="round" stroke-linejoin="round"/>
<path d="M12 14V19.5L15.97 21.88C16.2811 22.0669 16.6371 22.1656 17 22.1656C17.3629 22.1656 17.7189 22.0669 18.03 21.88L21.03 20.08C21.3252 19.9026 21.5697 19.652 21.7396 19.3524C21.9096 19.0528 21.9992 18.7144 22 18.37V15.13C21.9992 14.7856 21.9096 14.4472 21.7396 14.1476C21.5697 13.848 21.3252 13.5974 21.03 13.42L17 11L12 14Z" stroke="black" stroke-width="2" stroke-linecap="round" stroke-linejoin="round"/>
<path d="M17 17L12 14" stroke="black" stroke-width="2" stroke-linecap="round" stroke-linejoin="round"/>
<path d="M17 17.0004L21.74 14.1504" stroke="black" stroke-width="2" stroke-linecap="round" stroke-linejoin="round"/>
<path d="M17 17V22.17" stroke="black" stroke-width="2" stroke-linecap="round" stroke-linejoin="round"/>
<path d="M7.97 4.9196C7.67476 5.09698 7.43033 5.34761 7.26039 5.64719C7.09045 5.94678 7.00075 6.28518 7 6.6296V10.9996L12 13.9996L17 10.9996V6.6296C16.9992 6.28518 16.9096 5.94678 16.7396 5.64719C16.5697 5.34761 16.3252 5.09698 16.03 4.9196L13.03 3.1196C12.7189 2.93272 12.3629 2.83398 12 2.83398C11.6371 2.83398 11.2811 2.93272 10.97 3.1196L7.97 4.9196Z" stroke="black" stroke-width="2" stroke-linecap="round" stroke-linejoin="round"/>
<path d="M11.9998 8.50039L7.25977 5.65039" stroke="black" stroke-width="2" stroke-linecap="round" stroke-linejoin="round"/>
<path d="M12 8.50039L16.74 5.65039" stroke="black" stroke-width="2" stroke-linecap="round" stroke-linejoin="round"/>
<path d="M12 14V8.5" stroke="black" stroke-width="2" stroke-linecap="round" stroke-linejoin="round"/>
</svg>
